logos/appcenter.svg

<?xml version="1.0" encoding="UTF-8"?>
<svg width="512px" height="110px" viewBox="0 0 512 110" version="1.1" xmlns="http://www.w3.org/2000/svg" preserveAspectRatio="xMidYMid">
    <title>App Center</title>
    <g>
        <path d="M191.9656,20.0225235 L211.797424,72.697812 L202.26354,72.697812 L197.496735,59.4002725 L176.609512,59.4002725 L172.061008,72.697812 L162.599892,72.697812 L182.358949,20.0225235 L191.9656,20.0225235 Z M187.126301,27.9210306 L186.907725,27.9210306 C186.738117,29.3906017 186.483432,30.6517191 186.143669,31.7046564 L186.143669,31.7046564 L179.01138,52.0179482 L195.022647,52.0179482 L187.853974,31.7046564 C187.611325,31.0680794 187.368676,29.8066884 187.126301,27.9210306 L187.126301,27.9210306 Z M235.469501,34.1650664 C240.224543,34.1650664 243.960295,35.8425441 246.677306,39.1974995 C249.394316,42.5524548 250.752821,47.1195602 250.752821,52.899089 C250.752821,59.2169864 249.212398,64.2494195 246.131551,67.9963881 C243.050704,71.7430832 238.878074,73.6164308 233.613661,73.6164308 C229.101541,73.6164308 225.596127,71.730773 223.097419,67.9594574 L222.951884,67.9594574 L222.951884,89.9994678 L214.546167,89.9994678 L214.546167,35.0834116 L222.951884,35.0834116 L222.951884,41.1077778 L223.097419,41.1077778 C226.057078,36.4793947 230.181014,34.1650664 235.469501,34.1650664 Z M232.704617,41.1080514 C229.769305,41.1080514 227.397802,42.148952 225.590656,44.2304796 C223.783237,46.3120073 222.879664,49.0057651 222.879664,52.311753 L222.879664,52.311753 L222.879664,57.1236956 C222.879664,59.8910414 223.740835,62.1744573 225.463177,63.9744904 C227.185518,65.7745235 229.332427,66.6742665 231.903903,66.6742665 C235.106211,66.6742665 237.592883,65.4744268 239.363645,63.0744738 C241.134681,60.6745209 242.019925,57.2339408 242.019925,52.7524602 C242.019925,49.1283205 241.20143,46.2813684 239.563892,44.212151 C237.926354,42.1426601 235.639929,41.1080514 232.704617,41.1080514 Z M277.120297,34.1650664 C281.874792,34.1650664 285.611639,35.8425441 288.328103,39.1974995 C291.044566,42.5524548 292.404165,47.1195602 292.404165,52.899089 C292.404165,59.2169864 290.864015,64.2494195 287.78098,67.9963881 C284.70068,71.7430832 280.528871,73.6164308 275.262817,73.6164308 C270.751791,73.6164308 267.246377,71.730773 264.747669,67.9594574 L264.602134,67.9594574 L264.602134,89.9994678 L256.196417,89.9994678 L256.196417,35.0834116 L264.602134,35.0834116 L264.602134,41.1077778 L264.747669,41.1077778 C267.707328,36.4793947 271.831264,34.1650664 277.120297,34.1650664 Z M336.47215,19.1412732 C338.655169,19.1412732 340.922991,19.3249423 343.275618,19.6922803 C345.630981,20.059591 347.595151,20.5983426 349.170864,21.308535 L349.170864,30.197881 C345.461373,27.9940714 341.311448,26.8919478 336.726562,26.8919478 C333.159323,26.8919478 329.977805,27.7123033 327.173802,29.3531238 C324.372535,30.9939443 322.208665,33.3263276 320.679458,36.350821 C319.15025,39.3750407 318.387014,42.8952271 318.387014,46.91138 C318.387014,52.7398764 319.962727,57.3559492 323.116889,60.759872 C326.27105,64.1637948 330.481158,65.8656194 335.744477,65.8656194 C340.862808,65.8656194 345.33827,64.6291225 349.170864,62.1555816 L349.170864,70.4573453 C347.400922,71.4369682 345.174134,72.2084109 342.493233,72.7716736 C339.815068,73.3349362 337.090398,73.6164308 334.324694,73.6164308 C329.280224,73.6164308 324.851267,72.5328546 321.043294,70.3654287 C317.235321,68.1982764 314.32463,65.1250891 312.311219,61.1455934 C310.297808,57.1660976 309.291102,52.592974 309.291102,47.4256752 C309.291102,41.9648452 310.453738,37.0670043 312.781744,32.7324261 C315.112486,28.3981214 318.367865,25.0491844 322.553352,22.6860254 C326.73884,20.3228391 331.378439,19.1412732 336.47215,19.1412732 Z M274.354593,41.1080514 C271.419554,41.1080514 269.048052,42.148952 267.240906,44.2304796 C265.433487,46.3120073 264.529914,49.0057651 264.529914,52.311753 L264.529914,52.311753 L264.529914,57.1236956 C264.529914,59.8910414 265.391085,62.1744573 267.113426,63.9744904 C268.835768,65.7745235 270.982677,66.6742665 273.554153,66.6742665 C276.756461,66.6742665 279.243133,65.4744268 281.013074,63.0744738 C282.785751,60.6745209 283.669354,57.2339408 283.669354,52.7524602 C283.669354,49.1283205 282.851406,46.2813684 281.212774,44.212151 C279.576878,42.1426601 277.289905,41.1080514 274.354593,41.1080514 Z M369.931428,34.1650664 C375.07438,34.1650664 379.07111,35.7569194 381.921618,38.9403519 C384.772127,42.1240579 386.197381,46.5319506 386.197381,52.1643035 L386.197381,52.1643035 L386.197381,56.3886365 L360.835516,56.3886365 C361.005124,59.8171799 362.03645,62.4250394 363.926758,64.2127623 C365.819802,66.0004851 368.525323,66.8942098 372.043321,66.8942098 C374.152478,66.8942098 376.179567,66.5574559 378.119117,65.8842216 C380.058666,65.2107138 381.757482,64.3473544 383.212827,63.2944171 L383.212827,63.2944171 L383.212827,70.4573453 C381.806723,71.3880007 379.913679,72.1471332 377.536431,72.7347428 C375.159184,73.322626 372.647891,73.6164308 370.00529,73.6164308 C364.350778,73.6164308 359.973798,71.9083142 356.868878,68.4920811 C353.763957,65.0758481 352.210129,60.3312015 352.210129,54.2581414 C352.210129,50.2419884 352.981572,46.7278204 354.521722,43.7156373 C356.061872,40.7034542 358.19565,38.3587606 360.925791,36.681283 C363.655933,35.0038053 366.6569,34.1650664 369.931428,34.1650664 Z M369.934164,40.8136994 C367.652663,40.8136994 365.674815,41.6647485 364.00062,43.3668467 C362.326425,45.0686714 361.273214,47.2787728 360.835516,49.9971511 L377.829142,49.9971511 C377.829142,47.009315 377.137032,44.7319174 375.755547,43.164685 C374.371327,41.5974525 372.431778,40.8136994 369.934164,40.8136994 Z M415.621631,51.5766939 L415.621631,72.6980856 L424.025433,72.6980856 L424.025433,49.5931011 C424.025433,44.4014554 422.939394,40.5322049 420.770054,37.9853495 C418.597977,35.4384941 415.534091,34.1650664 411.581131,34.1650664 C406.317812,34.1650664 402.29099,36.4793947 399.500665,41.1077778 L399.355678,41.1077778 L399.355678,35.0834116 L390.94914,35.0834116 L390.94914,72.6980856 L399.355678,72.6980856 L399.355678,51.3195463 C399.355678,48.4052981 400.184568,45.9747063 401.847821,44.0280443 C403.508338,42.0811088 405.614759,41.1077778 408.161615,41.1077778 C410.779596,41.1077778 412.678111,41.9708636 413.854425,43.6973087 C415.030738,45.4237539 415.621631,48.0502156 415.621631,51.5766939 Z M450.900091,72.3306928 C450.391267,72.6244976 449.488515,72.9122841 448.189099,73.1937786 C446.892419,73.4755467 445.636773,73.6161572 444.422161,73.6161572 C437.12081,73.6161572 433.471503,69.6492453 433.471503,61.7148744 L433.471503,41.9156042 L427.283547,41.9156042 L427.283547,35.083138 L433.471503,35.083138 L433.471503,26.4142551 L441.913604,23.8062041 L441.913604,35.083138 L450.900091,35.083138 L450.900091,41.9156042 L441.913604,41.9156042 L441.913604,60.1353316 C441.913604,62.5106641 442.337624,64.1941601 443.185664,65.1860933 C444.036439,66.1777528 445.368683,66.6737194 447.187865,66.6737194 C447.674804,66.6737194 448.287581,66.5697661 449.026197,66.361586 C449.767548,66.1534059 450.391267,65.8779297 450.900091,65.5348839 L450.900091,72.3306928 Z M469.515935,34.1650664 C474.658887,34.1650664 478.655617,35.7569194 481.506126,38.9403519 C484.356634,42.1240579 485.781888,46.5319506 485.781888,52.1643035 L485.781888,52.1643035 L485.781888,56.3886365 L460.417288,56.3886365 C460.586896,59.8171799 461.618222,62.4250394 463.511266,64.2127623 C465.40431,66.0004851 468.109831,66.8942098 471.625093,66.8942098 C473.736986,66.8942098 475.761339,66.5574559 477.703624,65.8842216 C479.643174,65.2107138 481.341989,64.3473544 482.797335,63.2944171 L482.797335,63.2944171 L482.797335,70.4573453 C481.39123,71.3880007 479.498186,72.1471332 477.120939,72.7347428 C474.743691,73.322626 472.232399,73.6164308 469.587061,73.6164308 C463.935286,73.6164308 459.558305,71.9083142 456.453385,68.4920811 C453.345729,65.0758481 451.794637,60.3312015 451.794637,54.2581414 C451.794637,50.2419884 452.563344,46.7278204 454.106229,43.7156373 C455.646379,40.7034542 457.780157,38.3587606 460.510299,36.681283 C463.237704,35.0038053 466.241407,34.1650664 469.515935,34.1650664 Z M469.515935,40.8136994 C467.23717,40.8136994 465.259322,41.6647485 463.585127,43.3668467 C461.910932,45.0686714 460.857721,47.2787728 460.420023,49.9971511 L477.413649,49.9971511 C477.413649,47.009315 476.721539,44.7319174 475.340055,43.164685 C473.955835,41.5974525 472.016285,40.8136994 469.515935,40.8136994 Z M509.85528,42.4665566 C510.848307,42.7357409 511.565038,43.0298192 512,43.347971 L512,34.9362356 C511.201201,34.5931898 510.071393,34.4219405 508.616047,34.4219405 C506.433028,34.4219405 504.504421,35.1197953 502.830226,36.5157784 C501.156031,37.911488 499.908592,39.8707338 499.082437,42.3929686 L498.93745,42.3929686 L498.93745,35.083138 L490.530912,35.083138 L490.530912,72.697812 L498.93745,72.697812 L498.93745,53.4497678 C498.93745,50.070192 499.689743,47.3274667 501.19433,45.2213185 C502.696181,43.1154439 504.674029,42.0625066 507.125138,42.0625066 C507.948558,42.0625066 508.859517,42.1970988 509.85528,42.4665566 Z" fill="#CB2E63"></path>
        <path d="M81.3497342,109.424506 L0,82.0836991 L81.2988518,94.0714273 L81.2988518,73.575123 L81.2988518,0 L108.398651,11.3822824 L108.398651,98.0626861 L81.3497342,109.424506 Z M27.098678,18.2391503 L37.2609593,20.5203776 L37.2609593,36.9370627 L54.1982315,25.0794676 L54.1982315,38.760075 L37.2609593,47.8817019 L54.1982315,57.0033287 L54.1982315,70.683854 L37.2609593,58.8260674 L37.2609593,75.2430261 L27.098678,77.5242535 L9.03340333,61.5622272 L9.03340333,54.7218277 L19.4565799,47.8817019 L9.03340333,41.0413024 L9.03340333,34.200903 L27.098678,18.2391503 Z M27.100292,52.4411475 L14.4549226,58.8266145 L27.100292,68.4029002 L27.100292,52.4411475 Z M27.100292,27.3610506 L14.4549226,36.9376099 L27.100292,43.3230769 L27.100292,27.3610506 Z M67.7485416,29.6425516 L54.1987786,25.0800147 L54.1987786,70.6844011 L67.7485416,66.1219463 L67.7485416,29.6425516 Z" fill="#CB2E63"></path>
    </g>
</svg>

<?xml version="1.0" encoding="UTF-8"?>
<svg width="512" height="110" version="1.1" xmlns="http://www.w3.org/2000/svg" preserveAspectRatio="xMidYMid">
	<g fill="#CB2E63">
		<path d="m191.966 20.023 19.831 52.675h-9.533L197.497 59.4H176.61l-4.549 13.298H162.6l19.759-52.675h9.607Zm-4.84 7.898h-.218c-.17 1.47-.425 2.73-.764 3.784l-7.133 20.313h16.012l-7.169-20.313c-.243-.637-.485-1.898-.728-3.784Zm48.344 6.244c4.755 0 8.49 1.678 11.207 5.032 2.717 3.355 4.076 7.923 4.076 13.702 0 6.318-1.54 11.35-4.621 15.097-3.081 3.747-7.254 5.62-12.518 5.62-4.512 0-8.018-1.885-10.517-5.657h-.145V90h-8.406V35.083h8.406v6.025h.145c2.96-4.629 7.084-6.943 12.373-6.943Zm-2.765 6.943c-2.936 0-5.307 1.041-7.114 3.122-1.808 2.082-2.711 4.776-2.711 8.082v4.812c0 2.767.86 5.05 2.583 6.85 1.723 1.8 3.87 2.7 6.44 2.7 3.203 0 5.69-1.2 7.46-3.6 1.772-2.4 2.657-5.84 2.657-10.322 0-3.624-.819-6.47-2.456-8.54-1.638-2.07-3.924-3.104-6.86-3.104Zm44.415-6.943c4.755 0 8.492 1.678 11.208 5.032 2.717 3.355 4.076 7.923 4.076 13.702 0 6.318-1.54 11.35-4.623 15.097-3.08 3.747-7.252 5.62-12.518 5.62-4.511 0-8.017-1.885-10.515-5.657h-.146V90h-8.406V35.083h8.406v6.025h.146c2.96-4.629 7.083-6.943 12.372-6.943Zm59.352-15.024c2.183 0 4.451.184 6.804.551 2.355.368 4.32.906 5.895 1.617v8.889c-3.71-2.204-7.86-3.306-12.444-3.306-3.568 0-6.75.82-9.553 2.461-2.801 1.64-4.965 3.973-6.495 6.998-1.529 3.024-2.292 6.544-2.292 10.56 0 5.829 1.576 10.445 4.73 13.849 3.154 3.404 7.364 5.106 12.627 5.106 5.119 0 9.594-1.237 13.427-3.71v8.301c-1.77.98-3.997 1.751-6.678 2.315a39.594 39.594 0 0 1-8.168.844c-5.045 0-9.474-1.083-13.282-3.25-3.808-2.168-6.718-5.24-8.732-9.22-2.013-3.98-3.02-8.553-3.02-13.72 0-5.461 1.163-10.359 3.49-14.694 2.331-4.334 5.587-7.683 9.772-10.046 4.186-2.363 8.825-3.545 13.92-3.545Zm-62.117 21.967c-2.935 0-5.307 1.041-7.114 3.122-1.808 2.082-2.711 4.776-2.711 8.082v4.812c0 2.767.861 5.05 2.583 6.85 1.723 1.8 3.87 2.7 6.441 2.7 3.202 0 5.69-1.2 7.46-3.6 1.772-2.4 2.655-5.84 2.655-10.322 0-3.624-.818-6.47-2.456-8.54-1.636-2.07-3.923-3.104-6.858-3.104Zm95.576-6.943c5.143 0 9.14 1.592 11.99 4.775 2.851 3.184 4.276 7.592 4.276 13.224v4.225h-25.361c.17 3.428 1.2 6.036 3.09 7.824 1.894 1.787 4.6 2.681 8.117 2.681 2.11 0 4.137-.337 6.076-1.01 1.94-.673 3.638-1.537 5.094-2.59v7.163c-1.406.931-3.3 1.69-5.677 2.278-2.377.588-4.888.881-7.53.881-5.655 0-10.032-1.708-13.137-5.124-3.105-3.416-4.659-8.16-4.659-14.234 0-4.016.772-7.53 2.312-10.542 1.54-3.013 3.674-5.357 6.404-7.035 2.73-1.677 5.73-2.516 9.005-2.516Zm.003 6.649c-2.281 0-4.26.85-5.933 2.553-1.675 1.702-2.728 3.912-3.165 6.63h16.993c0-2.988-.692-5.265-2.073-6.832-1.385-1.568-3.324-2.351-5.822-2.351Zm45.688 10.763v21.121h8.403V49.593c0-5.192-1.086-9.06-3.255-11.608-2.172-2.547-5.236-3.82-9.189-3.82-5.263 0-9.29 2.314-12.08 6.943h-.145v-6.025h-8.407v37.615h8.407V51.32c0-2.915.829-5.345 2.492-7.292 1.66-1.947 3.767-2.92 6.314-2.92 2.618 0 4.516.863 5.692 2.59 1.177 1.726 1.768 4.352 1.768 7.879ZM450.9 72.33c-.509.293-1.411.581-2.71.863a17.724 17.724 0 0 1-3.768.422c-7.301 0-10.95-3.967-10.95-11.901v-19.8h-6.188v-6.832h6.188v-8.669l8.442-2.608v11.277h8.986v6.833h-8.986v18.22c0 2.375.424 4.058 1.272 5.05.85.992 2.183 1.488 4.002 1.488.487 0 1.1-.104 1.838-.312.742-.209 1.365-.484 1.874-.827v6.796Zm18.616-38.166c5.143 0 9.14 1.592 11.99 4.775 2.85 3.184 4.276 7.592 4.276 13.224v4.225h-25.365c.17 3.428 1.201 6.036 3.094 7.824 1.893 1.787 4.599 2.681 8.114 2.681a18.42 18.42 0 0 0 6.079-1.01c1.94-.673 3.638-1.537 5.093-2.59v7.163c-1.406.931-3.299 1.69-5.676 2.278-2.377.588-4.889.881-7.534.881-5.652 0-10.029-1.708-13.134-5.124-3.107-3.416-4.658-8.16-4.658-14.234 0-4.016.768-7.53 2.311-10.542 1.54-3.013 3.674-5.357 6.404-7.035 2.728-1.677 5.731-2.516 9.006-2.516Zm0 6.649c-2.279 0-4.257.85-5.93 2.553-1.675 1.702-2.728 3.912-3.166 6.63h16.994c0-2.988-.692-5.265-2.074-6.832-1.384-1.568-3.324-2.351-5.824-2.351Zm40.34 1.653c.992.269 1.709.563 2.144.881v-8.412c-.799-.343-1.929-.514-3.384-.514-2.183 0-4.112.698-5.786 2.094-1.674 1.395-2.921 3.355-3.748 5.877h-.145v-7.31h-8.406v37.615h8.406V53.45c0-3.38.753-6.123 2.257-8.229 1.502-2.106 3.48-3.158 5.931-3.158.824 0 1.735.134 2.73.404Z"/>
		<path d="M81.35 109.425 0 82.084 81.299 94.07V0l27.1 11.382v86.68l-27.05 11.363ZM27.099 18.239 37.26 20.52v16.417L54.198 25.08V38.76l-16.937 9.122 16.937 9.121v13.68L37.261 58.827v16.417l-10.162 2.281L9.033 61.562v-6.84l10.424-6.84-10.424-6.84V34.2L27.1 18.239Zm.001 34.202-12.645 6.386L27.1 68.403V52.44Zm0-25.08-12.645 9.577L27.1 43.323V27.361Zm40.649 2.282-13.55-4.563v45.604l13.55-4.562v-36.48Z"/>
	</g>
</svg>
